X: 1
T:The Black Joke
M:6/8
C:
S:Rob Powell
N:
A:Adderbury
O:English
R:Jig
%P:A/2(AB)$^5$
P:A.(AB)5
K:G
I:speed 600
P:A
%
|: D | DGG  GFG      |\
       AcB  A>GF     | GAB  d>cB | AcB  AGF  | G3   E3   | DEF  G2   :|\
P:B
   A |\
       Bdd  d2d      | ede  d2c  | Bdd  d2d  | ede  d2c  | B>BB BAG  |\
       AcB  A>GF     | GAB  d>cB | AcB  AGF  | G3   E3   | DEF  G2   ||
